X:1
T:Etude en La mineur
T:Etude en La mineur
T:Dionisio AGUADO (1784-1849)
%%score ( 1 2 )
L:1/8
Q:1/4=72
M:2/4
K:C
V:1 treble-8 nm="Guitare"
V:2 treble-8 
V:1
|: !2!A/!1!c/!0!e/c/ A/c/e/c/ | !1!^G/!0!B/!0!e/B/ !2!E/B/e/B/ | !2!B/!1!d/!0!e/d/ B/d/e/d/ | %3
 !2!A/!1!c/e/c/ !0!A,/c/e/c/ | !2!A/!1!c/!0!e/c/ !0!G/!2!^c/!0!e/c/ | %5
 !3!F/!4!d/!1!f/d/ !0!D/d/f/d/ | !2!E/!1!c/!0!e/c/ !1!^G/!0!B/!0!e/B/ | !2!A/!1!c/!0!e/c/ z2 :: %8
 !2!A/!1!c/!0!e/c/ A/c/e/c/ | !0!G/!0!B/!1!f/B/ !3!G,/B/f/B/ | !3!C/!1!c/!0!e/c/ !2!E/c/e/c/ | %11
 !0!G/!0!B/!1!f/B/ !3!G,/B/f/B/ | !3!C/!1!c/!0!e/c/ !2!B,/!4!d/!0!e/d/ | %13
 !0!A,/!1!c/!0!e/c/ !3!C/!1!c/!0!e/c/ | !0!D/B/f/B/ !2!E/!4!d/!0!e/d/ | !2!A/!1!c/!0!e/c/ z2 :| %16
V:2
|: A2 A2 | ^G2 E2 | B2 B2 | A2 A,2 | A2 G2 | F2 D2 | E2 ^G2 | A2 !0!A,2 :: A2 A2 | G2 G,2 | C2 E2 | %11
 G2 G,2 | C2 B,2 | A,2 C2 | D2 E2 | A2 !0!A,2 :| %16

